X:1
T: Hull's Victory $1(R-4)
%C: R-4
%C: New England
M: C|
Z: Transcribed to abc by Mary Lou Knack
R: hornpipe
K: F
  "F"fcfa fcfg| "C" agfe "F"f2AB| "C"c2cd c2cB| ABGA "F"F2c2|
  "F"fcfa fcfa| "C"g2g2 g2ag| "Dm"fedc "G7"=BcdB|"C"c2e2 c2c2 :|
|:"F"fefg agfe| "Bb"d2B2 B2ef| "G"g^fga bag=f| "C"e2c2 c2 (3cde|
"F"fcfa fcfa| "C"gcgb gcgb| "F"agfa "C"gfeg| "F"f2a2 f2c2 :|
%%textfont       Times-Bold 10.0
%%text Transition
|"F"f2z2 "A7"^f3g |

